art/logo.svg

<svg xmlns="http://www.w3.org/2000/svg" width="307" height="63"><style>.st0{fill:#fff}.st4{fill:#2e2e2e}</style><path class="st0" d="M203.1 32.3c-1.1-.6-2.6-1.2-4.7-1.8-1.7-.5-3-1-3.7-1.6-.6-.4-.8-.9-.8-1.6 0-.8.3-1.3.9-1.8.7-.6 1.8-.8 3.1-.8 1.4 0 2.4.3 3.2 1 .7.6 1.1 1.4 1.1 2.5v1.3h4.4v-1.3c0-1.4-.4-2.8-1.1-4-.7-1.2-1.8-2.1-3.1-2.8-1.3-.6-2.8-1-4.4-1-2.4 0-4.4.6-5.9 1.8-1.7 1.3-2.5 3-2.5 5 0 2.1.9 3.9 2.7 5.1 1.2.8 2.9 1.6 5.2 2.2 2.5.7 3.6 1.3 4.1 1.7.5.4.8 1 .8 1.8s-.3 1.4-1 1.9c-.8.6-1.9.8-3.2.8-1.6 0-2.8-.3-3.7-1-.8-.6-1.2-1.4-1.2-2.5v-1.3h-4.4v1.3c0 1.5.4 2.9 1.2 4.1.8 1.2 1.9 2.1 3.4 2.7 1.4.6 3 .9 4.7.9 2.5 0 4.5-.6 6.1-1.8 1.7-1.3 2.5-3 2.5-5.1 0-1.3-.3-2.5-1-3.5-.6-.7-1.5-1.5-2.7-2.2z"/><path class="st0" d="M221.6 39.9v-7.5c0-2-.7-3.5-2-4.6-1.3-1.1-2.9-1.7-5-1.7-2 0-3.7.6-5.1 1.7-1.5 1.2-2.3 2.6-2.3 4.3v1.3h4.4V32c0-.3.1-.7.7-1.2.6-.4 1.3-.7 2.2-.7 1 0 1.7.2 2.2.6.3.2.6.7.6 1.7v.6h-1.9c-2.6 0-4.6.5-6.1 1.6-1.6 1.1-2.5 2.8-2.5 4.7 0 1.7.6 3.1 1.8 4.2 1.2 1.1 2.7 1.6 4.6 1.6 1.2 0 2.4-.3 3.6-.8.3-.1.6-.3.9-.5l.3 1h4.1v-1.7l-.1-.2c-.2-.5-.4-1.3-.4-3zm-4.3-1.1c-.3.6-.8 1.1-1.4 1.5-.7.4-1.5.7-2.5.7-.7 0-1.3-.2-1.7-.5-.4-.3-.5-.7-.5-1.2 0-.6.3-1.1.9-1.5.8-.5 1.9-.7 3.4-.8h1.8v1.8zM231.9 26.1c-1.3 0-2.5.3-3.6.9-.1.1-.2.1-.3.2v-.9h-4.2v18.4h4.3V32.9c.3-.8.8-1.5 1.4-2 .6-.5 1.3-.7 2.1-.7.9 0 1.5.2 1.8.6.4.4.6 1.2.6 2.3v11.7h4.3V33.1c0-2.2-.5-4-1.6-5.2-1.1-1.2-2.7-1.8-4.8-1.8zM263 40.8c-.8.1-1.1.1-1.2.1-.3 0-.5-.1-.5-.1-.1-.1-.2-.4-.2-1.2v-9.3h3.3v-4H261v-4.1h-4.4v4.1h-2.9v3.1c-.3-.5-.7-1-1.2-1.5-1.4-1.3-3.1-1.9-5.2-1.9-1.6 0-3.1.4-4.3 1.2-1.2.8-2.2 1.9-2.8 3.3-.6 1.4-.9 2.9-.9 4.7v.5c0 2.7.7 5 2.1 6.7 1.5 1.7 3.5 2.6 5.9 2.6 1.2 0 2.4-.3 3.5-.8s2-1.3 2.7-2.3c.7-1 1.1-2.1 1.1-3.3l.1-1.4h-4.3l-.1 1.2c0 .7-.3 1.3-.9 1.8-.6.5-1.3.7-2.2.7-1.2 0-2-.4-2.7-1.2-.7-.9-1-2.2-1-3.9v-.5c0-1.8.3-3.1 1-4 .6-.8 1.5-1.2 2.7-1.2.9 0 1.6.3 2.2.8.6.5.9 1.2.9 2.1l.1 1.2h4.3l-.1-1.4c0-.9-.2-1.8-.5-2.6h2.4v9.3c0 1.6.4 3 1.1 3.9.8 1 2 1.5 3.6 1.5 1 0 1.7-.1 2.3-.3l.9-.3-.2-3.8-1.2.3zM275.5 38.9c-.4 1-1.1 2.1-3.5 2.1-1.2 0-2.4-.4-2.4-3.2V26.4h-4.3V38c0 2.2.6 4 1.7 5.2 1.1 1.3 2.8 1.9 4.8 1.9 1.5 0 2.7-.3 3.8-.8v.5h4.3V26.4h-4.4v12.5zM300 26.1c-1.4 0-2.6.3-3.8 1-.5.3-1 .6-1.4 1.1-.9-1.1-2.4-2-5-2-1.3 0-2.5.3-3.6.9-.1.1-.2.1-.3.2v-.8h-4.3v18.4h4.4v-12c.3-.9.7-1.6 1.3-2 .6-.4 1.2-.7 2-.7.9 0 1.6.2 2 .6.4.4.6 1.1.6 2.1v11.9h4.4V33.1c.1-.8.4-1.4 1-2 .6-.6 1.4-.9 2.3-.9.7 0 1.5.1 2 .6.4.4.6 1.2.6 2.3v11.7h4.4V32.9c-.1-4.4-2.4-6.8-6.6-6.8zM173.6 19.3v11.5c-.4-1-.9-1.8-1.6-2.5-1.6-1.7-3.7-2.6-6.4-2.6-1.8 0-3.3.4-4.7 1.3-1 .6-1.8 1.4-2.5 2.4l1.1-3.3h-8.1l-1.6 6-1.6-6H140l.7 2.1-.5-.5c-1.5-1.3-3.4-1.9-5.8-1.9-1.5 0-2.9.3-4.2.8-.8.4-1.6.8-2.2 1.4v-1.5l-1.2-.4c-.6-.2-1.2-.3-1.8-.3-.6 0-1.3.1-2 .4v-.1h-7.3v5.4c-.3-1.5-1-2.8-2.2-3.8-1.5-1.3-3.4-1.9-5.8-1.9-1.5 0-2.9.3-4.2.8-1.3.6-2.4 1.4-3.1 2.4-.8 1.1-1.2 2.3-1.2 3.5v1.7h1.8c-1.2 1-2 2.5-2.1 4.2h-7.6V20.5h-7.8v24.7h17.1v-1.8l.3.3c1.3 1.2 3 1.8 5 1.8 1.2 0 2.2-.2 3.2-.7l.2.4h13.9V33.6c.2-.2.6-.4 1.4-.4.3 0 .7 0 1.2.1v.8h1.8c-1.4 1.2-2.2 2.9-2.2 4.9 0 1.8.7 3.5 2.1 4.7 1.3 1.2 3 1.8 5 1.8 1.2 0 2.2-.2 3.2-.7l.2.4h7v-2.4l-.2-.4c-.2-.3-.4-1-.4-2.6v-6.5l4 11.9h6.5l3.6-10.6V36c0 2.8.9 5.2 2.7 6.9 1.8 1.7 4.1 2.6 6.9 2.6 1.6 0 3-.3 4.3-.9 1.3-.6 2.3-1.5 3.1-2.5v3.1h7.6V19.3h-7.4z"/><circle class="st0" cx="31.5" cy="31.5" r="9.5"/><circle cx="31.5" cy="31.5" r="8" fill="#1c5872"/><path class="st0" d="M20.6 63c-3.1 0-6-1.2-8.1-3.4l-9.1-9.1C1.2 48.3 0 45.4 0 42.4V38h5.5c.3 0 .5-.2.5-.5s-.2-.5-.5-.5H0V26h5.5c.3 0 .5-.2.5-.5s-.2-.5-.5-.5H0v-4.4c0-3.1 1.2-6 3.4-8.1l9.1-9.1C14.7 1.2 17.6 0 20.6 0H31v15h-8.9L15 22.1v18.8l7.1 7.1H31v15H20.6z"/><linearGradient id="SVGID_1_" gradientUnits="userSpaceOnUse" x1="15.5" y1="63.5" x2="15.5" y2="3.5" gradientTransform="matrix(1 0 0 -1 0 65)"><stop offset="0" stop-color="#7be7ee"/><stop offset="1" stop-color="#18caf1"/></linearGradient><path d="M20.6 1.5h8.9v12h-8l-8 8v20.1l8 8h8v12h-8.9c-2.7 0-5.2-1.1-7.1-2.9l-9.1-9.1c-1.9-1.9-2.9-4.4-2.9-7.1v-2.9h4c1.1 0 2-.9 2-2s-.9-2-2-2h-4v-8h4c1.1 0 2-.9 2-2s-.9-2-2-2h-4v-2.9c0-2.7 1.1-5.2 2.9-7.1l9.1-9.1c1.9-1.9 4.5-3 7.1-3z" fill="url(#SVGID_1_)"/><path class="st0" d="M32 63V48h8.9l7.1-7.1V22.1L40.9 15H32V0h10.4c3.1 0 6 1.2 8.1 3.4l9.1 9.1c2.2 2.2 3.4 5.1 3.4 8.1V25h-5.5c-.3 0-.5.2-.5.5s.2.5.5.5H63v11h-5.5c-.3 0-.5.2-.5.5s.2.5.5.5H63v4.4c0 3.1-1.2 6-3.4 8.1l-9.1 9.1c-2.2 2.2-5.1 3.4-8.1 3.4H32z"/><linearGradient id="SVGID_00000052813150282423585190000006779284605935669923_" gradientUnits="userSpaceOnUse" x1="47.5" y1="63.5" x2="47.5" y2="3.5" gradientTransform="matrix(1 0 0 -1 0 65)"><stop offset="0" stop-color="#7be7ee"/><stop offset="1" stop-color="#18caf1"/></linearGradient><path d="M33.5 61.5v-12h8l8-8v-20l-8-8h-8v-12h8.9c2.7 0 5.2 1.1 7.1 2.9l9.1 9.1c1.9 1.9 2.9 4.4 2.9 7.1v2.9h-4c-1.1 0-2 .9-2 2s.9 2 2 2h4v8h-4c-1.1 0-2 .9-2 2s.9 2 2 2h4v2.9c0 2.7-1.1 5.2-2.9 7.1l-9.1 9.1c-1.9 1.9-4.4 2.9-7.1 2.9h-8.9z" fill="url(#SVGID_00000052813150282423585190000006779284605935669923_)"/><path class="st4" d="M89.8 40h9.3v3.5H85.4V22.2h4.4V40zM110.6 43.5c-.2-.4-.3-.9-.4-1.4-1 1.1-2.4 1.7-4 1.7s-2.8-.4-3.9-1.3c-1-.9-1.5-2-1.5-3.4 0-1.7.6-3 1.9-3.9 1.2-.9 3.1-1.4 5.4-1.4h1.9v-.9c0-.7-.2-1.3-.6-1.8-.4-.4-1-.7-1.8-.7-.7 0-1.3.2-1.7.5-.4.3-.6.8-.6 1.4h-4.2c0-.9.3-1.8.8-2.5.6-.8 1.4-1.4 2.4-1.8 1-.4 2.2-.7 3.5-.7 2 0 3.5.5 4.6 1.5 1.2 1 1.7 2.4 1.7 4.1v6.9c0 1.5.2 2.6.6 3.4v.2h-4.1zm-3.5-2.9c.6 0 1.2-.1 1.7-.4.5-.3.9-.7 1.2-1.1v-2.7h-1.6c-2.1 0-3.2.7-3.4 2.2v.2c0 .5.2 1 .6 1.3.3.3.8.5 1.5.5zM126.4 31.6c-.6-.1-1.1-.1-1.5-.1-1.6 0-2.7.5-3.1 1.6v10.4h-4.2V27.7h4l.1 1.9c.8-1.5 2-2.2 3.5-2.2.5 0 .9.1 1.3.2l-.1 4zM137.2 43.5c-.2-.4-.3-.9-.4-1.4-1 1.1-2.4 1.7-4 1.7s-2.8-.4-3.9-1.3c-1-.9-1.5-2-1.5-3.4 0-1.7.6-3 1.9-3.9 1.2-.9 3.1-1.4 5.4-1.4h1.9v-.9c0-.7-.2-1.3-.6-1.8-.4-.4-1-.7-1.8-.7-.7 0-1.3.2-1.7.5-.4.3-.6.8-.6 1.4h-4.2c0-.9.3-1.8.8-2.5.6-.8 1.4-1.4 2.4-1.8 1-.4 2.2-.7 3.5-.7 2 0 3.5.5 4.6 1.5 1.2 1 1.7 2.4 1.7 4.1v6.9c0 1.5.2 2.6.6 3.4v.2h-4.1zm-3.5-2.9c.6 0 1.2-.1 1.7-.4.5-.3.9-.7 1.2-1.1v-2.7H135c-2.1 0-3.2.7-3.4 2.2v.2c0 .5.2 1 .6 1.3.3.3.8.5 1.5.5zM149.8 38.3l2.9-10.7h4.4l-5.3 15.8h-4l-5.3-15.8h4.4l2.9 10.7zM166.1 43.8c-2.3 0-4.2-.7-5.7-2.1-1.5-1.4-2.2-3.3-2.2-5.7v-.4c0-1.6.3-3 .9-4.3.6-1.3 1.5-2.2 2.6-2.9 1.1-.7 2.4-1 3.9-1 2.2 0 3.9.7 5.1 2.1 1.2 1.4 1.9 3.3 1.9 5.8V37h-10.1c.1 1 .5 1.9 1.2 2.5.7.6 1.6.9 2.6.9 1.6 0 2.9-.6 3.8-1.8l2.1 2.3c-.6.9-1.5 1.6-2.6 2.1-1 .5-2.2.8-3.5.8zm-.5-13c-.8 0-1.5.3-2.1.8-.5.6-.8 1.4-1 2.4h5.9v-.3c0-.9-.3-1.7-.8-2.2-.4-.5-1.1-.7-2-.7zM179.5 43.5h-4.2V21h4.2v22.5zM203.6 38.3c0-1.2-.4-2.1-1.2-2.8-.8-.7-2.3-1.3-4.6-2-2.2-.6-3.8-1.3-4.8-2-1.4-1-2.2-2.4-2.2-4.1 0-1.6.7-3 2-4s3.1-1.5 5.2-1.5c1.4 0 2.7.3 3.8.8 1.1.5 2 1.3 2.6 2.3.6 1 .9 2.1.9 3.3h-1.8c0-1.5-.5-2.6-1.5-3.5-1-.9-2.3-1.3-4-1.3-1.6 0-2.9.4-3.9 1.1-1 .7-1.4 1.7-1.4 2.8 0 1.1.4 2 1.3 2.7.9.7 2.3 1.3 4.2 1.8 1.9.5 3.4 1.1 4.4 1.6 1 .6 1.7 1.2 2.2 2 .5.8.7 1.7.7 2.8 0 1.7-.7 3-2 4s-3.1 1.5-5.3 1.5c-1.5 0-2.9-.3-4.1-.8-1.2-.5-2.2-1.3-2.9-2.3-.6-1-1-2.1-1-3.3h1.8c0 1.5.6 2.7 1.7 3.6 1.1.9 2.6 1.3 4.5 1.3 1.7 0 3-.4 4-1.1.9-.8 1.4-1.7 1.4-2.9zM218.9 43.5c-.2-.5-.3-1.2-.3-2.2-.6.8-1.4 1.4-2.4 1.9-.9.4-2 .6-3 .6-1.5 0-2.8-.4-3.7-1.3-.9-.8-1.4-1.9-1.4-3.2 0-1.5.6-2.8 1.9-3.7 1.3-.9 3.1-1.3 5.4-1.3h3.2v-1.8c0-1.1-.4-2-1.1-2.7-.7-.7-1.7-1-3-1-1.2 0-2.2.3-3 .9-.8.6-1.2 1.4-1.2 2.3h-1.8c0-1.3.6-2.3 1.8-3.3 1.2-.9 2.6-1.4 4.3-1.4 1.8 0 3.2.4 4.2 1.3s1.6 2.1 1.6 3.7v7.5c0 1.5.2 2.7.5 3.4v.2h-2zm-5.5-1.3c1.2 0 2.2-.3 3.1-.8.9-.6 1.6-1.3 2-2.3v-3.5h-3.1c-1.7 0-3.1.3-4.1 1-1 .6-1.5 1.5-1.5 2.5 0 .9.3 1.6 1 2.2.7.6 1.6.9 2.6.9zM226.7 27.7l.1 2.7c.6-1 1.3-1.7 2.2-2.2.9-.5 1.9-.8 2.9-.8 1.7 0 3 .5 3.8 1.4.8 1 1.2 2.4 1.3 4.3v10.4h-1.7V33.1c0-1.4-.3-2.5-.9-3.2-.6-.7-1.5-1-2.8-1-1.1 0-2 .3-2.9 1-.8.7-1.4 1.6-1.8 2.7v10.9H225V27.7h1.7zM247.4 42.3c1.2 0 2.2-.3 3.1-1 .8-.7 1.3-1.6 1.3-2.7h1.7c0 1-.4 1.9-.9 2.7-.6.8-1.3 1.4-2.2 1.9-.9.4-1.9.7-3 .7-2.1 0-3.7-.7-5-2.2-1.2-1.4-1.8-3.4-1.8-5.8v-.5c0-1.6.3-2.9.8-4.1.5-1.2 1.3-2.1 2.3-2.8 1-.7 2.2-1 3.6-1 1.7 0 3.2.5 4.3 1.6 1.1 1 1.7 2.4 1.8 4.1h-1.7c-.1-1.2-.5-2.2-1.3-3-.8-.8-1.8-1.1-3.1-1.1-1.6 0-2.8.6-3.7 1.7-.9 1.1-1.3 2.7-1.3 4.8v.5c0 2 .4 3.6 1.3 4.7.9.9 2.2 1.5 3.8 1.5zM259.7 23.6v4.1h3.3v1.4h-3.3v10.6c0 .9.2 1.5.5 2 .3.4.9.6 1.6.6.3 0 .8 0 1.4-.1l.1 1.4c-.5.2-1.1.2-1.9.2-1.2 0-2.1-.3-2.6-1s-.8-1.7-.8-3.1V29.1h-3v-1.4h2.9v-4.1h1.8zM276.8 41.5c-1.1 1.5-2.7 2.3-5.1 2.3-1.7 0-3-.5-3.9-1.5-.9-1-1.3-2.4-1.3-4.4V27.7h1.7v10.1c0 3 1.2 4.5 3.7 4.5s4.1-1 4.8-3.1V27.7h1.8v15.8h-1.7v-2zM284.7 27.7l.1 2.6c.6-1 1.3-1.7 2.2-2.2.9-.5 1.9-.7 2.9-.7 2.5 0 4.1 1 4.8 3.1.6-1 1.3-1.7 2.3-2.3.9-.5 2-.8 3.1-.8 3.4 0 5.1 1.9 5.2 5.6v10.6h-1.8V33.1c0-1.4-.3-2.5-.9-3.1-.6-.7-1.6-1-2.9-1-1.3 0-2.3.4-3.2 1.2-.9.8-1.4 1.8-1.5 2.9v10.5h-1.8V32.9c0-1.4-.3-2.4-1-3-.6-.7-1.6-1-2.9-1-1.1 0-2.1.3-2.8 1-.8.6-1.4 1.6-1.8 2.8v10.9H283V27.7h1.7z"/></svg>

<svg viewBox="0 0 307 63" xmlns="http://www.w3.org/2000/svg">
    <style>
        #sanctum { fill: #2e2e2e } @media (prefers-color-scheme:dark) { #sanctum { fill: #fff } }
    </style>
    <path d="M31.5 39.5C35.9183 39.5 39.5 35.9183 39.5 31.5C39.5 27.0817 35.9183 23.5 31.5 23.5C27.0817 23.5 23.5 27.0817 23.5 31.5C23.5 35.9183 27.0817 39.5 31.5 39.5Z" fill="#1C5872"/>
    <path d="M20.6 1.5H29.5V13.5H21.5L13.5 21.5V41.6L21.5 49.6H29.5V61.6H20.6C17.9 61.6 15.4 60.5 13.5 58.7L4.4 49.6C2.5 47.7 1.5 45.2 1.5 42.5V39.6H5.5C6.6 39.6 7.5 38.7 7.5 37.6C7.5 36.5 6.6 35.6 5.5 35.6H1.5V27.6H5.5C6.6 27.6 7.5 26.7 7.5 25.6C7.5 24.5 6.6 23.6 5.5 23.6H1.5V20.7C1.5 18 2.6 15.5 4.4 13.6L13.5 4.5C15.4 2.6 18 1.5 20.6 1.5Z" fill="url(#paint0_linear_18_193)"/>
    <path d="M33.5 61.5V49.5H41.5L49.5 41.5V21.5L41.5 13.5H33.5V1.5H42.4C45.1 1.5 47.6 2.6 49.5 4.4L58.6 13.5C60.5 15.4 61.5 17.9 61.5 20.6V23.5H57.5C56.4 23.5 55.5 24.4 55.5 25.5C55.5 26.6 56.4 27.5 57.5 27.5H61.5V35.5H57.5C56.4 35.5 55.5 36.4 55.5 37.5C55.5 38.6 56.4 39.5 57.5 39.5H61.5V42.4C61.5 45.1 60.4 47.6 58.6 49.5L49.5 58.6C47.6 60.5 45.1 61.5 42.4 61.5H33.5Z" fill="url(#paint1_linear_18_193)"/>
    <path id="sanctum" d="M89.8 40H99.1V43.5H85.4V22.2H89.8V40ZM110.6 43.5C110.4 43.1 110.3 42.6 110.2 42.1C109.2 43.2 107.8 43.8 106.2 43.8C104.6 43.8 103.4 43.4 102.3 42.5C101.3 41.6 100.8 40.5 100.8 39.1C100.8 37.4 101.4 36.1 102.7 35.2C103.9 34.3 105.8 33.8 108.1 33.8H110V32.9C110 32.2 109.8 31.6 109.4 31.1C109 30.7 108.4 30.4 107.6 30.4C106.9 30.4 106.3 30.6 105.9 30.9C105.5 31.2 105.3 31.7 105.3 32.3H101.1C101.1 31.4 101.4 30.5 101.9 29.8C102.5 29 103.3 28.4 104.3 28C105.3 27.6 106.5 27.3 107.8 27.3C109.8 27.3 111.3 27.8 112.4 28.8C113.6 29.8 114.1 31.2 114.1 32.9V39.8C114.1 41.3 114.3 42.4 114.7 43.2V43.4H110.6V43.5ZM107.1 40.6C107.7 40.6 108.3 40.5 108.8 40.2C109.3 39.9 109.7 39.5 110 39.1V36.4H108.4C106.3 36.4 105.2 37.1 105 38.6V38.8C105 39.3 105.2 39.8 105.6 40.1C105.9 40.4 106.4 40.6 107.1 40.6ZM126.4 31.6C125.8 31.5 125.3 31.5 124.9 31.5C123.3 31.5 122.2 32 121.8 33.1V43.5H117.6V27.7H121.6L121.7 29.6C122.5 28.1 123.7 27.4 125.2 27.4C125.7 27.4 126.1 27.5 126.5 27.6L126.4 31.6ZM137.2 43.5C137 43.1 136.9 42.6 136.8 42.1C135.8 43.2 134.4 43.8 132.8 43.8C131.2 43.8 130 43.4 128.9 42.5C127.9 41.6 127.4 40.5 127.4 39.1C127.4 37.4 128 36.1 129.3 35.2C130.5 34.3 132.4 33.8 134.7 33.8H136.6V32.9C136.6 32.2 136.4 31.6 136 31.1C135.6 30.7 135 30.4 134.2 30.4C133.5 30.4 132.9 30.6 132.5 30.9C132.1 31.2 131.9 31.7 131.9 32.3H127.7C127.7 31.4 128 30.5 128.5 29.8C129.1 29 129.9 28.4 130.9 28C131.9 27.6 133.1 27.3 134.4 27.3C136.4 27.3 137.9 27.8 139 28.8C140.2 29.8 140.7 31.2 140.7 32.9V39.8C140.7 41.3 140.9 42.4 141.3 43.2V43.4H137.2V43.5ZM133.7 40.6C134.3 40.6 134.9 40.5 135.4 40.2C135.9 39.9 136.3 39.5 136.6 39.1V36.4H135C132.9 36.4 131.8 37.1 131.6 38.6V38.8C131.6 39.3 131.8 39.8 132.2 40.1C132.5 40.4 133 40.6 133.7 40.6ZM149.8 38.3L152.7 27.6H157.1L151.8 43.4H147.8L142.5 27.6H146.9L149.8 38.3ZM166.1 43.8C163.8 43.8 161.9 43.1 160.4 41.7C158.9 40.3 158.2 38.4 158.2 36V35.6C158.2 34 158.5 32.6 159.1 31.3C159.7 30 160.6 29.1 161.7 28.4C162.8 27.7 164.1 27.4 165.6 27.4C167.8 27.4 169.5 28.1 170.7 29.5C171.9 30.9 172.6 32.8 172.6 35.3V37H162.5C162.6 38 163 38.9 163.7 39.5C164.4 40.1 165.3 40.4 166.3 40.4C167.9 40.4 169.2 39.8 170.1 38.6L172.2 40.9C171.6 41.8 170.7 42.5 169.6 43C168.6 43.5 167.4 43.8 166.1 43.8ZM165.6 30.8C164.8 30.8 164.1 31.1 163.5 31.6C163 32.2 162.7 33 162.5 34H168.4V33.7C168.4 32.8 168.1 32 167.6 31.5C167.2 31 166.5 30.8 165.6 30.8ZM179.5 43.5H175.3V21H179.5V43.5ZM203.6 38.3C203.6 37.1 203.2 36.2 202.4 35.5C201.6 34.8 200.1 34.2 197.8 33.5C195.6 32.9 194 32.2 193 31.5C191.6 30.5 190.8 29.1 190.8 27.4C190.8 25.8 191.5 24.4 192.8 23.4C194.1 22.4 195.9 21.9 198 21.9C199.4 21.9 200.7 22.2 201.8 22.7C202.9 23.2 203.8 24 204.4 25C205 26 205.3 27.1 205.3 28.3H203.5C203.5 26.8 203 25.7 202 24.8C201 23.9 199.7 23.5 198 23.5C196.4 23.5 195.1 23.9 194.1 24.6C193.1 25.3 192.7 26.3 192.7 27.4C192.7 28.5 193.1 29.4 194 30.1C194.9 30.8 196.3 31.4 198.2 31.9C200.1 32.4 201.6 33 202.6 33.5C203.6 34.1 204.3 34.7 204.8 35.5C205.3 36.3 205.5 37.2 205.5 38.3C205.5 40 204.8 41.3 203.5 42.3C202.2 43.3 200.4 43.8 198.2 43.8C196.7 43.8 195.3 43.5 194.1 43C192.9 42.5 191.9 41.7 191.2 40.7C190.6 39.7 190.2 38.6 190.2 37.4H192C192 38.9 192.6 40.1 193.7 41C194.8 41.9 196.3 42.3 198.2 42.3C199.9 42.3 201.2 41.9 202.2 41.2C203.1 40.4 203.6 39.5 203.6 38.3ZM218.9 43.5C218.7 43 218.6 42.3 218.6 41.3C218 42.1 217.2 42.7 216.2 43.2C215.3 43.6 214.2 43.8 213.2 43.8C211.7 43.8 210.4 43.4 209.5 42.5C208.6 41.7 208.1 40.6 208.1 39.3C208.1 37.8 208.7 36.5 210 35.6C211.3 34.7 213.1 34.3 215.4 34.3H218.6V32.5C218.6 31.4 218.2 30.5 217.5 29.8C216.8 29.1 215.8 28.8 214.5 28.8C213.3 28.8 212.3 29.1 211.5 29.7C210.7 30.3 210.3 31.1 210.3 32H208.5C208.5 30.7 209.1 29.7 210.3 28.7C211.5 27.8 212.9 27.3 214.6 27.3C216.4 27.3 217.8 27.7 218.8 28.6C219.8 29.5 220.4 30.7 220.4 32.3V39.8C220.4 41.3 220.6 42.5 220.9 43.2V43.4H218.9V43.5ZM213.4 42.2C214.6 42.2 215.6 41.9 216.5 41.4C217.4 40.8 218.1 40.1 218.5 39.1V35.6H215.4C213.7 35.6 212.3 35.9 211.3 36.6C210.3 37.2 209.8 38.1 209.8 39.1C209.8 40 210.1 40.7 210.8 41.3C211.5 41.9 212.4 42.2 213.4 42.2ZM226.7 27.7L226.8 30.4C227.4 29.4 228.1 28.7 229 28.2C229.9 27.7 230.9 27.4 231.9 27.4C233.6 27.4 234.9 27.9 235.7 28.8C236.5 29.8 236.9 31.2 237 33.1V43.5H235.3V33.1C235.3 31.7 235 30.6 234.4 29.9C233.8 29.2 232.9 28.9 231.6 28.9C230.5 28.9 229.6 29.2 228.7 29.9C227.9 30.6 227.3 31.5 226.9 32.6V43.5H225V27.7H226.7ZM247.4 42.3C248.6 42.3 249.6 42 250.5 41.3C251.3 40.6 251.8 39.7 251.8 38.6H253.5C253.5 39.6 253.1 40.5 252.6 41.3C252 42.1 251.3 42.7 250.4 43.2C249.5 43.6 248.5 43.9 247.4 43.9C245.3 43.9 243.7 43.2 242.4 41.7C241.2 40.3 240.6 38.3 240.6 35.9V35.4C240.6 33.8 240.9 32.5 241.4 31.3C241.9 30.1 242.7 29.2 243.7 28.5C244.7 27.8 245.9 27.5 247.3 27.5C249 27.5 250.5 28 251.6 29.1C252.7 30.1 253.3 31.5 253.4 33.2H251.7C251.6 32 251.2 31 250.4 30.2C249.6 29.4 248.6 29.1 247.3 29.1C245.7 29.1 244.5 29.7 243.6 30.8C242.7 31.9 242.3 33.5 242.3 35.6V36.1C242.3 38.1 242.7 39.7 243.6 40.8C244.5 41.7 245.8 42.3 247.4 42.3ZM259.7 23.6V27.7H263V29.1H259.7V39.7C259.7 40.6 259.9 41.2 260.2 41.7C260.5 42.1 261.1 42.3 261.8 42.3C262.1 42.3 262.6 42.3 263.2 42.2L263.3 43.6C262.8 43.8 262.2 43.8 261.4 43.8C260.2 43.8 259.3 43.5 258.8 42.8C258.3 42.1 258 41.1 258 39.7V29.1H255V27.7H257.9V23.6H259.7ZM276.8 41.5C275.7 43 274.1 43.8 271.7 43.8C270 43.8 268.7 43.3 267.8 42.3C266.9 41.3 266.5 39.9 266.5 37.9V27.7H268.2V37.8C268.2 40.8 269.4 42.3 271.9 42.3C274.4 42.3 276 41.3 276.7 39.2V27.7H278.5V43.5H276.8V41.5ZM284.7 27.7L284.8 30.3C285.4 29.3 286.1 28.6 287 28.1C287.9 27.6 288.9 27.4 289.9 27.4C292.4 27.4 294 28.4 294.7 30.5C295.3 29.5 296 28.8 297 28.2C297.9 27.7 299 27.4 300.1 27.4C303.5 27.4 305.2 29.3 305.3 33V43.6H303.5V33.1C303.5 31.7 303.2 30.6 302.6 30C302 29.3 301 29 299.7 29C298.4 29 297.4 29.4 296.5 30.2C295.6 31 295.1 32 295 33.1V43.6H293.2V32.9C293.2 31.5 292.9 30.5 292.2 29.9C291.6 29.2 290.6 28.9 289.3 28.9C288.2 28.9 287.2 29.2 286.5 29.9C285.7 30.5 285.1 31.5 284.7 32.7V43.6H283V27.7H284.7Z"/>
    <defs>
        <linearGradient id="paint0_linear_18_193" x1="15.5" y1="1.5" x2="15.5" y2="61.5" gradientUnits="userSpaceOnUse">
            <stop stop-color="#7BE7EE"/>
            <stop offset="1" stop-color="#18CAF1"/>
        </linearGradient>
        <linearGradient id="paint1_linear_18_193" x1="47.5" y1="1.5" x2="47.5" y2="61.5" gradientUnits="userSpaceOnUse">
            <stop stop-color="#7BE7EE"/>
            <stop offset="1" stop-color="#18CAF1"/>
        </linearGradient>
    </defs>
</svg>
